Source Code/mun/assets/flags/MHL.svg

<svg viewBox="0 0 40.5 40.5" xmlns="http://www.w3.org/2000/svg"><path d="m40.5 20.25a19.29 19.29 0 0 1 -.15 2.42 19.4 19.4 0 0 1 -1.24 5 20.26 20.26 0 0 1 -30.44 9.2c-.48-.34-.92-.68-1.37-1s-.7-.62-1-.95a20.25 20.25 0 1 1 34.12-16.8 19.32 19.32 0 0 1 .08 2.13z" fill="#003893"/><path d="m22.26 17.08-4.69-1.75v-.06l8.52-.5-8.52-.5v-.07l4.68-1.75-4.92.82a.2.2 0 0 1 0-.08l4.07-2.9-4.55 2.07v-.07l3.17-3.86-3.85 3.19-.17-.06 2.08-4.56-2.9 4.07h-.08l.82-4.93-1.75 4.66h-.06l-.5-8.51-.51 8.51h-.1l-1.72-4.67.83 4.92h-.08l-2.91-4.05 2.08 4.54-.07.06-3.86-3.15 3.18 3.85v.06l-4.6-2.06 4.07 2.9v.08l-4.92-.82 4.64 1.74v.07l-8.52.5 8.52.5v.07l-4.64 1.75 4.93-.83v.08l-4.07 2.91 4.54-2.08v.07l-3.12 3.86 3.85-3.18h.07l-2.06 4.6 2.86-4.07h.08l-.81 4.93 1.73-4.65h.06l.51 8.52.5-8.52h.06l1.76 4.68-.83-4.92h.08l2.91 4.07-2.05-4.56a.18.18 0 0 0 .07 0l3.86 3.17-3.18-3.85a.18.18 0 0 0 0-.07l4.55 2.07-4.07-2.9s0-.05 0-.08z" fill="#fff"/><path d="m40.5 20.25a19.29 19.29 0 0 1 -.15 2.42l-33.05 13.16c-.35-.31-.7-.62-1-.95l34.12-16.8a19.32 19.32 0 0 1 .08 2.17z" fill="#dd7500"/><path d="m40.35 22.67a19.4 19.4 0 0 1 -1.24 5l-30.44 9.2c-.48-.34-.92-.68-1.37-1z" fill="#fff"/></svg>

<svg xmlns="http://www.w3.org/2000/svg" viewBox="0 0 40.5 40.5"><defs><style>.cls-1{fill:#003893;}.cls-2{fill:#fff;}.cls-3{fill:#dd7500;}</style></defs><g id="Ebene_2" data-name="Ebene 2"><g id="Ńëîé_1" data-name="Ńëîé 1"><path class="cls-1" d="M40.5,20.25a19.29,19.29,0,0,1-.15,2.42,19.4,19.4,0,0,1-1.24,5A20.26,20.26,0,0,1,8.67,36.87c-.48-.34-.92-.68-1.37-1s-.7-.62-1-.95a20.25,20.25,0,1,1,34.12-16.8A19.32,19.32,0,0,1,40.5,20.25Z"/><path class="cls-2" d="M22.26,17.08l-4.69-1.75v-.06l8.52-.5-8.52-.5V14.2l4.68-1.75-4.92.82a.2.2,0,0,1,0-.08l4.07-2.9-4.55,2.07,0-.07,3.17-3.86-3.85,3.19L16,11.56,18.08,7l-2.9,4.07-.08,0,.82-4.93L14.17,10.8h-.06l-.5-8.51-.51,8.51H13L11.28,6.13l.83,4.92-.08,0L9.12,7l2.08,4.54-.07.06L7.27,8.45l3.18,3.85,0,.06L5.85,10.3l4.07,2.9,0,.08L5,12.46,9.64,14.2v.07l-8.52.5,8.52.5v.07L5,17.09l4.93-.83,0,.08L5.86,19.25l4.54-2.08,0,.07L7.28,21.1l3.85-3.18.07,0L9.14,22.52,12,18.45l.08,0-.81,4.93L13,18.73h.06l.51,8.52.5-8.52h.06l1.76,4.68-.83-4.92.08,0,2.91,4.07L16,18a.18.18,0,0,0,.07,0l3.86,3.17-3.18-3.85a.18.18,0,0,0,0-.07l4.55,2.07-4.07-2.9s0-.05,0-.08Z"/><path class="cls-3" d="M40.5,20.25a19.29,19.29,0,0,1-.15,2.42L7.3,35.83c-.35-.31-.7-.62-1-.95l34.12-16.8A19.32,19.32,0,0,1,40.5,20.25Z"/><path class="cls-2" d="M40.35,22.67a19.4,19.4,0,0,1-1.24,5L8.67,36.87c-.48-.34-.92-.68-1.37-1Z"/></g></g></svg>
